svg/shuffle.svg

<svg width="24" height="24" viewBox="0 0 24 24" fill="none" xmlns="http://www.w3.org/2000/svg">
<path d="M21.9241 6.61722C21.8753 6.49927 21.803 6.38877 21.7071 6.29289L18.7071 3.29289C18.3166 2.90237 17.6834 2.90237 17.2929 3.29289C16.9024 3.68342 16.9024 4.31658 17.2929 4.70711L18.5858 6L15.2648 6C13.5084 6 11.8809 6.92149 10.9773 8.42752L7.30772 14.5435C6.76555 15.4471 5.78903 16 4.73524 16H3C2.44772 16 2 16.4477 2 17C2 17.5523 2.44772 18 3 18H4.73524C6.49155 18 8.11909 17.0785 9.0227 15.5725L12.6923 9.45651C13.2345 8.5529 14.211 8 15.2648 8H18.5858L17.2929 9.29289C16.9024 9.68342 16.9024 10.3166 17.2929 10.7071C17.6834 11.0976 18.3166 11.0976 18.7071 10.7071L21.7063 7.70787C21.7088 7.70544 21.7112 7.703 21.7136 7.70055C21.9045 7.50613 22 7.25307 22 7" fill="#0D0D0D"/>
<path d="M21.9241 6.61722C21.9727 6.73425 21.9996 6.8625 22 6.997L21.9241 6.61722Z" fill="#0D0D0D"/>
<path d="M21.7061 17.7081L18.7071 20.7071C18.3166 21.0976 17.6834 21.0976 17.2929 20.7071C16.9024 20.3166 16.9024 19.6834 17.2929 19.2929L18.5858 18H15.2648C13.5084 18 11.8809 17.0785 10.9773 15.5725L7.30772 9.45651C6.76555 8.5529 5.78903 8 4.73524 8H3C2.44772 8 2 7.55228 2 7C2 6.44771 2.44772 6 3 6H4.73524C6.49155 6 8.11909 6.9215 9.0227 8.42752L12.6923 14.5435C13.2345 15.4471 14.211 16 15.2648 16H18.5858L17.2929 14.7071C16.9024 14.3166 16.9024 13.6834 17.2929 13.2929C17.6834 12.9024 18.3166 12.9024 18.7071 13.2929L21.7071 16.2929C21.9016 16.4874 21.9992 16.7421 22 16.997L22 17C22 17.2766 21.8877 17.527 21.7061 17.7081Z" fill="#0D0D0D"/>
</svg>

<svg width="24" height="24" fill="none" xmlns="http://www.w3.org/2000/svg"><path d="M21.924 6.617a.997.997 0 00-.217-.324l-3-3a1 1 0 10-1.414 1.414L18.586 6h-3.321a5 5 0 00-4.288 2.428l-3.67 6.115A3 3 0 014.736 16H3a1 1 0 100 2h1.735a5 5 0 004.288-2.428l3.67-6.115A3 3 0 0115.264 8h3.32l-1.292 1.293a1 1 0 001.414 1.414l3-3A.997.997 0 0022 7M21.924 6.617a.996.996 0 01.076.38l-.076-.38z" fill="#0D0D0D"/><path d="M21.706 17.708l-2.999 3a1 1 0 01-1.414-1.415L18.586 18h-3.321a5 5 0 01-4.288-2.428l-3.67-6.115A3 3 0 004.736 8H3a1 1 0 010-2h1.735a5 5 0 014.288 2.428l3.67 6.115A3 3 0 0015.264 16h3.32l-1.292-1.293a1 1 0 011.414-1.414l3 3c.195.194.292.45.293.704V17a.997.997 0 01-.294.708z" fill="#0D0D0D"/></svg>
